X: 2
T: Táim In Arrears
R: slip jig
M: 9/8
L: 1/8
K: Gmaj
|:D2G GAG FGA|BAB GAB [c2C2]d|DGG GAG FGA|{d}BAB cAF [G2G,2]d:|
|:d (3fed cAG FDD|d (3fed cAB [c2C2]c|d (3fed cAG FGA|{d}BAB cAF [G3G,3]:|
